X:1
T:Goldberg Variations: Variation XXX
T:BWV 988
T:J. S. Bach
%%score { ( 1 4 5 ) | ( 2 3 ) }
L:1/8
M:4/4
K:G
V:1 treble nm="Harp"
V:4 treble 
V:5 treble 
V:2 bass 
V:3 bass 
V:1
 z | z4 z2 z D | GABc dc/B/ A z | d2 d2 e2 e2 | dedc c/4B/4c/4B/4A G2 | z4 z2 z d | %6
 gfed d/4^c/4d/4c/4B/c/ A z | a2 a2 b2 b2 | abag fed z | z4 z2 z D | GABc dc/B/ A z | d2 d2 e2 e2 | %12
 dedc c/4B/4c/4B/4A G2 | z4 z2 z d | gfed d/4^c/4d/4c/4B/c/ A z | a2 a2 b2 b2 | abag fed a | %17
 fa fa de/f/ ge | ag fe e/4^d/4e/4d/4^c/d/ Bb | ebeb ^d/e/f/g/ ag/f/ | gf/e/ ^d/e/f/d/ e4- | %21
 e/d/f/e/ g/f/a d3 c/d/ | ef/g/ ag g/4f/4e/4f/4d z2 | bc' d'b c'bag | fg af g2 g a | %25
 fa fa de/f/ ge | ag fe e/4^d/4e/4d/4^c/d/ Bb | ebeb ^d/e/f/g/ ag/f/ | gf/e/ ^d/e/f/d/ e4- | %29
 e/d/f/e/ g/f/a d3 c/d/ | ef/g/ ag g/4f/4e/4f/4d z2 | bc' d'b c'bag | fg af g2 !fermata!g z |] %33
V:2
 D, | G,A,B,C DC/B,/ A,G,/A,/ | B,A, G,4 G,/4F,/4G,/4F,/4E,/F,/ | G,2 z D CB,A,G, | %4
 G,/4F,/4G,/4F,/4G,/4F,/4G,/4F,/4 G,/4F,/4E,/4F,/4D,- D,2 z2 | %5
[I:staff -1] G2 G2 A2[I:staff +1] z2 |[I:staff -1] GAGF E[I:staff +1]D ^C z | F,G,A,F, G,F,E,D, | %8
 ^C,D,E,C, D,2 D,D, | G,A,B,C DC/B,/ A,G,/A,/ | B,A, G,4 G,/4F,/4G,/4F,/4E,/F,/ | G,2 z D CB,A,G, | %12
 G,/4F,/4G,/4F,/4G,/4F,/4G,/4F,/4 G,/4F,/4E,/4F,/4D,- D,2 z2 | %13
[I:staff -1] G2 G2 A2[I:staff +1] z2 |[I:staff -1] GAGF E[I:staff +1]D ^C z | F,G,A,F, G,F,E,D, | %16
 ^C,D,E,C, D,2 D,[K:treble] F | DFDF GDDG | E z z2 F2 F2 | G2 G2 FGFE | %20
 ^DE/F/[K:bass] B,2- B,A,/B,/ G,A,/B,/ | C[K:treble]DEF GF/E/ D z | z A ED/E/ F G2 F | %23
[K:bass] D2 D2 E2 E2 | DEDC B,A,G, F | DFDF GDDG | E z z2 F2 F2 | G2 G2 FGFE | %28
 ^DE/F/ B,2- B,A,/B,/ G,A,/B,/ | CDEF GF/E/ D z | z A ED/E/ F G2 F | D2 D2 E2 E2 | DEDC B,A,G, z |] %33
V:3
 x | G,4 F,4 | E,4 D,3 C, | B,,4 C,4 | D,4 G,,2 z B,/A,/ | G,F,/G,/ E,D,/E,/ F,3 B, | %6
 E,3 F,/G,/ A,2- A,/G,/F,/E,/ | F,2 D,2 G,2 G,,2 | A,,4 D,,2 z z | G,4 F,4 | E,4 D,3 C, | %11
 B,,4 C,4 | D,4 G,,2 z B,/A,/ | G,F,/G,/ E,D,/E,/ F,3 B, | E,3 F,/G,/ A,2- A,/G,/F,/E,/ | %15
 F,2 D,2 G,2 G,,2 | A,,4 D,,2 z[K:treble] x | D2 C2 B,2 G,2 | CB,CA, B,3 A, | G,EG,E A,3 ^A, | %20
 B,2[K:bass] B,,2 E,3 D, | C,2[K:treble] C2 B,3 C/B,/ | A,3 B,/C/ D3 C/D/ | %23
[K:bass] G,A,B,G, C3 _D | D2 D,2 G,2 G,, z | D2 C2 B,2 G,2 | CB,CA, B,3 A, | G,EG,E A,3 ^A, | %28
 B,2 B,,2 E,3 D, | C,2 C2 B,3 C/B,/ | A,3 B,/C/ D3 C/D/ | G,A,B,G, C3 _D | %32
 D2 D,2 G,2 !fermata!G,, x |] %33
V:4
 x | x8 | G2 G2 A2 A2 | GAG=F EDCB | AGAF G2 GE | GABc dc/B/ Ad- | dc B2 A3 B/^c/ | defd Bdgf | %8
 e>d- d/^c/e- e/dc/ d z | x8 | G2 G2 A2 A2 | GAG=F EDCB | AGAF G2 GE | GABc dc/B/ Ad- | %14
 dc B2 A3 B/^c/ | defd Bdgf | e>d- d/^c/e- e/dc/ d x | A2 A2 B2 B2 | ABAG FE D z | B2 B2 c2 c2 | %20
 BcBA GF/G/ E z | z4 G2 G2 | c>d cB ABcd | BA/B/ G z z e/d/ ce | A/d/c/B/ c/A/d- dc/d/ B z | %25
 A2 A2 B2 B2 | ABAG FE D z | B2 B2 c2 c2 | BcBA GF/G/ E z | z4 G2 G2 | c>d cB ABcd | %31
 BA/B/ G z z e/d/ ce | A/d/c/B/ c/A/d- dc/d/ B x |] %33
V:5
 x | x8 | x8 | x8 | x8 | x8 | x8 | x8 | z3 A- AG F z | x8 | x8 | x8 | x8 | x8 | x8 | x8 | %16
 z3 A- AG F x | x8 | x8 | x8 | x8 | x8 | x8 | x8 | x8 | x8 | x8 | x8 | x8 | x8 | x8 | x8 | x8 |] %33

